X:1
T:James Gibb editions
T:Psalm 41 (Becker) - Schütz
%%score [ ( 1 2 ) ( 3 4 ) ]
L:1/8
Q:1/4=100
M:2/2
K:F
V:1 treble nm="Soprano Alto"
V:2 treble 
V:3 bass nm="Tenor Bass"
V:4 bass 
V:1
"^Cornelius Becker\n(1561-1604)""^Psalm 41, SWV 138""^Heinrich Schütz\n(1585-1672)" A4 c2 d2 | %1
w: ~Wohl mag der|
 f2 d2 c2 B2 | A4 A4 | B2 c2 d2 c2 | c2 =B2 c4 |[M:2/2] f4 c2 d2 | A2 B2 (cB/A/) G2 | F4 c4 | %8
w: sein ein se- lig|Mann, der|sich nimmt des Dürf-|ti- gen an,|ihm ist Se-|gen von Gott * * be-|reit, er|
 B2 A2 d2 c2 | (BG A4) A2 | A8 |] %11
w: wird er- rett zur|bö\- * * sen|Zeit.|
V:2
 E4 F2 F2 | D2 F2 A2 G2 | E4 ^F4 | G2 A2 D2 G2 | G2 G2 G4 |[M:2/2] F4 F2 F2 | F2 D2 (FD) E2 | %7
 F4 F4 | D2 F2 F2 F2 | (D2 E2) F4 | E8 |] %11
V:3
 C4 A,2 A,2 | B,2 D2 F2 D2 | ^C4 D4 | D2 F2 F2 E2 | D2 D2 C4 | %5
[M:2/2]"^2. Der Herr Leib und Seel ihm bewahrt, \nfrisch und gesund beim Leben spart,\nihm muß wohl gehn auf dieser Erd, \nweil Gott ihn hält im Herzen wert.\n\n4. Ich sprach: Ach Herr, erzeig mir Gnad, \ndenn ich bekenn mein Missetat,\nan dir hab ich gesündigt schwer, \nheil meine Seel, o Gott, mein Herr.\n\n11. Um mein Glauben, Herr, mich erhältst, \nvor dein Antlitz mich ewig stellst,\nHerr, unser Gott, gelobt allzeit \nvon nun an bis in Ewigkeit." A,4 A,2 B,2 | %6
 C2 B,2 (A,F,) C2 | C4 A,4 | B,2 C2 B,2 A,2 | (B,D ^C2) D4 | ^C8 |] %11
V:4
 A,4 F,2 D,2 | B,,2 B,2 F,2 G,2 | A,4 D,4 | G,2 F,2 B,2 C2 | G,2 G,2 C,4 |[M:2/2] D,4 F,2 B,,2 | %6
 F,2 G,2 (F,B,,) C,2 | F,4 F,4 | G,2 F,2 B,,2 F,2 | (G,B, A,2) D,4 | A,8 |] %11

